X:542
T:BAdd542-  Bragandary
S:traditional tune for ZN2776, from Annapolis Maryland, 1752
Q:1/4=120
L:1/8
M:6/8
K:Ddorian
F|F2BB2B|F2BB2B|FBB BBB|\
B3z2F|FBBB2B|F2BB2B|FBB BBB|\
B3z2B|Bddd2d|Bddd2d|(Bd)d d2d|\
Bddd2d|Bdd ddd|B2dd2z|\
g3zfe|dcB AGz|DDDD2D|(D3D2)|]

